X: 1
T: Stumpie
T: Wap an' Rowe
O: Trad (1734)
R: strathspey
Z: John Chambers <jc:trillian.mit.edu>
M: 4/4
L: 1/8
K: G
c |: "G"B<d g2 g/f/e/d/ g2 | B<d g2  "D7"a<A A>c | "G"B<d g2 g/f/e/d/ g2 | B<d "D7"A>c "G"B<G G2 :|
A |: "G"B<d d>B "C"c<e e>c | "G"B<d d>B "D7"B<A A>c | "G"B<d d>B "C"c<e e>c | "G"B<g "D7"A>c "G"B<G G2 :|
